X: 23903
T: Loch Leven Castle
R: hornpipe
M: 4/4
K: Aminor
cB|A^GAB AGEG|A^GAB cBcd|e^fge dedc|B2G2G2cB|
A^GAB AGEG|A^GAB cBcd|e^fge dedB|c2A2A2:|
eg|agab ageg|agab age^f|gage dedc|B2G2G2eg|
agab ageg|agab aged|cBcd edcB|c2A2A2eg|
agab ageg|agab age^f|gage dedc|B2G2G2cB|
A^GAB cBcd|dgdB cBAG|AcBd cedB|c2A2A2||

